packages/foundations/assets/icons/functional/images/date & time/clock_14.svg

<svg width="14" height="14" viewBox="0 0 14 14" fill="none" xmlns="http://www.w3.org/2000/svg">
<g clip-path="url(#clip0_185_678)">
<path fill-rule="evenodd" clip-rule="evenodd" d="M7.00002 1.39999C10.0869 1.39999 12.6 3.91313 12.6 6.99999C12.6 10.0869 10.0869 12.6 7.00002 12.6C3.91316 12.6 1.40002 10.0869 1.40002 6.99999C1.40002 3.91313 3.91316 1.39999 7.00002 1.39999ZM7.00002 2.80685C4.67805 2.80685 2.80688 4.67802 2.80688 6.99999C2.80688 9.32196 4.67805 11.1931 7.00002 11.1931C9.32199 11.1931 11.1932 9.32196 11.1932 6.99999C11.1932 4.67802 9.32199 2.80685 7.00002 2.80685ZM7.69659 4.19999V6.71313L9.22637 8.24291L8.24294 9.22634L6.30345 7.28685V4.19999H7.69659Z" fill="#1A1C1F"/>
</g>
<defs>
<clipPath id="clip0_185_678">
<rect width="14" height="14" fill="white"/>
</clipPath>
</defs>
</svg>

<svg xmlns="http://www.w3.org/2000/svg" width="14" height="14" fill="none"><g clip-path="url(#a)"><path fill="#1A1C1F" fill-rule="evenodd" d="M7 1.4c3.087 0 5.6 2.513 5.6 5.6s-2.513 5.6-5.6 5.6A5.61 5.61 0 0 1 1.4 7c0-3.087 2.513-5.6 5.6-5.6m0 1.407A4.185 4.185 0 0 0 2.807 7 4.185 4.185 0 0 0 7 11.193 4.185 4.185 0 0 0 11.193 7 4.185 4.185 0 0 0 7 2.807M7.697 4.2v2.513l1.53 1.53-.984.983-1.94-1.94V4.2z" clip-rule="evenodd"/></g><defs><clipPath id="a"><path fill="#fff" d="M0 0h14v14H0z"/></clipPath></defs></svg>
